X:1
T:Joy to the Sons of Men
T:Joy to the Sons of Men
T:Henry Tucker
T:Henry Tucker, 1861
T:Public Domain Courtesy of the Cyber Hymnal™
T:Public Domain Courtesy of the Cyber Hymnal™
C:Henry Tucker
Z:Public Domain
Z:Courtesy of the Cyber Hymnal™
%%score 1 ( 2 3 )
L:1/8
Q:1/4=82
M:2/4
K:A
V:1 treble 
V:2 bass 
V:3 bass 
V:1
 [CA]2 [DF][DA] | [CE][DF] [CE]2 | [CA]2 [DF][FA] | [EG][FA] !fermata![GB][EB] | %4
w: 1.~Joy to the|sons of men|On this bright|Christ- mas morn! List|
w: 2.~Joy to earth’s|sor- rowing child|On this calm,|peace- ful morn! The|
w: 3.~Joy to the|sick and poor,|“Bless- èd are|they that mourn”; If|
w: 4.~Love, joy, good-|will and peace,|Since that first|Christ- mas morn, Have|
 [Ec]>[Ec] [DB][CA] | [EG][DF] [CE][CA] | [Ec][Ec] [DB][CA] | [EG][DF] !fermata![CE][EA] | %8
w: to the wel- come|words a- gain That|charm our wait- ing|hearts, as when The|
w: ho- ly, harm- less,|un- de- filed, Can|soothe his breast with|com- fort mild; The|
w: they sub- mis- sive-|ly en- dure, And|trust His ho- ly|pro- mise sure: He|
w: come to earth, and|ne’er shall cease; To|Him who pur- chased|our re- lease, Our|
 [EG][EB] [EA][Ac] | [GB]>[Ac] [GB][EA] | [EG][EB] [EA][Ac] | %11
w: shep- herds heard with|glad a- maze Th’an-|nounce- ment of an-|
w: hymn that floats a-|long the air Shall|find an an- swer|
w: comes all sor- row|to re- lieve, To|com- fort all who|
w: hearts, re- deemed from|death, we’ll bring, And|hum- bly, grate- ful-|
 [GB] ([Bd]/[Ac]/) !fermata![GB]"^Girls"E | AG AB | c3"^All" [EB] | [Ac][GB] [Ac][Bd] | %15
w: gel- ic * lays, “A|Sav- ior Christ is|born, A|Sav- ior Christ is|
w: e- choing * there— “The|Sav- ior Christ is|born, The|Sav- ior Christ is|
w: will be- * lieve— “The|Sav- ior Christ is|born, The|Sav- ior Christ is|
w: ly we’ll * sing, “The|Sav- ior Christ is|born, The|Sav- ior Christ is|
 [ce]3 [ce] | [ce]2 [Ac]2 | [Fd]2 [EG]2 | [EA]4 |] %19
w: born, A|Sav- ior|Christ is|born.”|
w: born, The|Sav- ior|Christ is|born.”|
w: born, The|Sav- ior|Christ is|born.”|
w: born, The|Sav- ior|Christ is|born.”|
V:2
 [A,,A,]2 [D,A,][F,A,] | A,[A,,A,] [A,,A,]2 | [A,,A,]2 [D,A,][D,A,] | E,E, !fermata!E,[E,G,] | %4
 [A,,A,]>A, A,A, | [D,A,][D,A,] [A,,A,][A,,A,] | A,A, A,A, | [F,A,][D,A,] !fermata![A,,A,][C,A,] | %8
 [E,B,][E,G,] [A,C]A, | [E,B,]>[E,A,] [E,B,][A,C] | [E,B,][E,G,] [E,C][E,A,] | E,E, !fermata!E,E, | %12
 A,E, C,E, | [A,,A,]3 [E,G,] | A,E, A,A, | A,3 [A,,A,] | A,2 A,2 | [D,A,]2 [E,D]2 | [A,,C]4 |] %19
V:3
 x4 | x4 | x4 | E,E, E, x | x3/2 A,/ A,A, | x4 | A,A, A,A, | x4 | x3 A, | x4 | x4 | E,E, E, x | %12
 x4 | x4 | A,E, A,A, | A,3 x | A,2 A,2 | x4 | x4 |] %19

